X:1
T:Victory Is Won
T:Victory Is Won
T:Ira David Sankey
T:Francs Jane (Fanny) Crosby, 1905
T:Public Domain Courtesy of the Cyber Hymnal™
T:Public Domain Courtesy of the Cyber Hymnal™
C:Ira David Sankey
Z:Public Domain
Z:Courtesy of the Cyber Hymnal™
%%score ( 1 2 ) ( 3 4 )
L:1/8
Q:1/4=105
M:4/4
K:Bb
V:1 treble 
V:2 treble 
V:3 bass 
V:4 bass 
V:1
 [DF]2 [DF]>[EG] [DF]2 [B,D][DF] | [FB]2 [Fc]2 [Fd]4 | [Ac]>[Ac] [Ac][FB] [FA]2 z2 | %3
w: 1.~Oh, ye re- deemed of the|Lord, re- joice,|Vic- to- ry is won,|
w: 2.~O- ver the foes that in|chains He bound,|Vic- to- ry is won,|
w: 3.~Fear not the world nor the|tempt- er’s power,|Vic- to- ry is won,|
w: 4.~Lift up your eyes to the|gates of gold,|Vic- to- ry is won,|
 [Fd]>[Fd] [Fd][Ec] [DB]2 z2 | [DF]2 [DF]>[EG] [DF]2 [B,D][DF] | [FB]2 [Fc]2 [Fd]4 | %6
w: vic- to- ry is won.|Wake, wake the song with a|tune- ful voice,|
w: vic- to- ry is won.|Hark, how the an- thems of|joy re- sound,|
w: vic- to- ry is won.|Sing and pro- claim in the|dark- est hour,|
w: vic- to- ry is won.|Praise ye the Lord for His|love un- told,|
 [Fc]>[Fc] [Fc][FB] [FA]2 [=EG]2 | F6 z2 | [EA]2 [EA]>[DB] [Fc]2 [EF]2 | [DF]2 [DB]2 [Fd]4 | %10
w: Vic- to- ry is won thro’|Christ.|Washed in the blood that|makes us free,|
w: Vic- to- ry is won thro’|Christ.|O- ver the tomb where|Je- sus lay|
w: Vic- to- ry is won thro’|Christ.|Glo- ry to Him who|died for men,|
w: Vic- to- ry is won thro’|Christ.|Sing till the wea- ry|night is o’er,|
 [^Fd]2 [FA]>[FA] [GB]2 [G=B]2 | [Gc]2 [=EG]2 [FA]4 | [DB]2 [DB]>[DB] [EB]2 ([FA][EG]) | %13
w: Heirs of His grace thro’|faith are we;|Ev- er in this our *|
w: Shin- eth the light of|end- less day,|Oh, ye re- deemed, be *|
w: Glo- ry to Him who|lives a- gain,|Her- ald a- far the *|
w: Sing when we reach the|heav’n- ly shore,|Sing with the mil- lions *|
 [DF]2 [DB]2 [Fd]4 | [Ec]>[Ec] [Gc][Gc] [FB]2 [EA]2 | [DB]6 z2 |] %16
w: boast shall be,|Vic- to- ry is won thro’|Christ.|
w: glad and say,|Vic- to- ry is won thro’|Christ.|
w: sweet re- frain.|Vic- to- ry is won thro’|Christ.|
w: gone be- fore,|Vic- to- ry is won thro’|Christ.|
V:2
 x8 | x8 | x8 | x8 | x8 | x8 | x8 | F6 x2 | x8 | x8 | x8 | x8 | x8 | x8 | x8 | x8 |] %16
V:3
 [B,,B,]2 [B,,B,]>[B,,B,] [B,,B,]2 [B,,F,][B,,B,] | [D,B,]2 [F,A,]2 B,4 | %2
 [F,E]>[F,E] [F,E][F,D] [F,C]2 z2 | [B,,B,]>[B,,B,] [B,,B,][B,,F,] [B,,F,]2 z2 | %4
 [B,,B,]2 [B,,B,]>[B,,B,] [B,,B,]2 [B,,F,][B,,B,] | [D,B,]2 [C,A,]2 [B,,B,]4 | %6
 [A,,E]>[A,,E] [A,,E][B,,D] [C,C]2 [C,B,]2 | [F,A,]6 z2 | [F,C]2 [F,C]>[F,B,] [F,A,]2 [F,A,]2 | %9
 [B,,B,]2 [B,,F,]2 [B,,B,]4 | [D,A,]2 [D,D]>[D,D] [G,D]2 [F,D]2 | [=E,C]2 [C,C]2 C4 | %12
 [B,,B,]2 [B,,F,]>[B,,F,] [E,G,]2 (A,B,) | [B,,B,]2 [B,,F,]2 [B,,B,]4 | %14
 [E,G,]>[E,G,] [E,C][E,E] [F,D]2 [F,,F,C]2 | [B,,F,B,]6 z2 |] %16
V:4
 x8 | x4 B,4 | x8 | x8 | x8 | x8 | x8 | x8 | x8 | x8 | x8 | x4 (F,_E,D,C,) | x6 E,2 | x8 | x8 | %15
 x8 |] %16

